icons/bag.svg

<svg xmlns="http://www.w3.org/2000/svg" viewBox="0 0 24 24" fill="currentColor">
  <path d="M8.75 7c0-1.78579 1.4642-3.25 3.25-3.25.8718 0 1.6882.39887 2.2697.98034.5814.58148.9803 1.39782.9803 2.26966v.25h-6.5V7Zm-1.5.30946V7c0-2.61421 2.13579-4.75 4.75-4.75 1.3282 0 2.5118.60116 3.3303 1.41968C16.1488 4.48821 16.75 5.67184 16.75 7v.30946c2.2607.36187 4 2.33139 4 4.69054v6c0 2.1142-1.6358 3.75-3.75 3.75H7c-2.13037 0-3.75-1.7521-3.75-3.75v-6c0-2.35915 1.73934-4.32867 4-4.69054ZM4.75 12c0-1.7858 1.46421-3.25 3.25-3.25h8c1.7858 0 3.25 1.4642 3.25 3.25v6c0 1.2858-.9642 2.25-2.25 2.25H7c-1.26963 0-2.25-1.0479-2.25-2.25v-6Z"/>
</svg>

<svg width="24" height="24" viewBox="0 0 24 24" fill="none" xmlns="http://www.w3.org/2000/svg">
<path fill-rule="evenodd" clip-rule="evenodd" d="M8.75 7C8.75 5.21421 10.2142 3.75 12 3.75C12.8718 3.75 13.6882 4.14887 14.2697 4.73034C14.8511 5.31182 15.25 6.12816 15.25 7V7.25H8.75V7ZM7.25 7.30946V7C7.25 4.38579 9.38579 2.25 12 2.25C13.3282 2.25 14.5118 2.85116 15.3303 3.66968C16.1488 4.48821 16.75 5.67184 16.75 7V7.30946C19.0107 7.67133 20.75 9.64085 20.75 12V18C20.75 20.1142 19.1142 21.75 17 21.75H7C4.86963 21.75 3.25 19.9979 3.25 18V12C3.25 9.64085 4.98934 7.67133 7.25 7.30946ZM4.75 12C4.75 10.2142 6.21421 8.75 8 8.75H16C17.7858 8.75 19.25 10.2142 19.25 12V18C19.25 19.2858 18.2858 20.25 17 20.25H7C5.73037 20.25 4.75 19.2021 4.75 18V12Z" fill="black"/>
</svg>
